X:1
T:Air Moving
C:Kathryn Tickell
K:G
M:3/4
Q:104
% partie A
z4 f2 |: g3f e2 | d3c B2 | d3c/B/c2 | A4 f2
      | g3f e2 | d3c B2 | d6 | d4 f2
      | g3f e2 | d3c B2 | d3c/B/c2 | A4 dc
      | B3A G2 | F3E D2 | C6 |1 C4 f2 :|2 C4 B2
% partie B
     || c3C E2 | c4 d2 | B3A G2 | F2 G2 B2
      | c3C E2 | c4 d2 | B3A GB | A4 B2
      | c3C E2 | c4 d2 | B3A G2 | F2 G2 f2
      | g3f e2 | d3c B2 | d6 | d6 |]
